fs/table_simple_28_filled.svg

<svg viewBox="0 0 28 28" fill="none" xmlns="http://www.w3.org/2000/svg" height="1em" width="1em">
  <path d="M3 6.75C3 4.67893 4.67893 3 6.75 3H13.25V13.25H3V6.75ZM3 14.75V21.25C3 23.3211 4.67893 25 6.75 25H13.25V14.75H3ZM14.75 25H21.25C23.3211 25 25 23.3211 25 21.25V14.75H14.75V25ZM25 13.25V6.75C25 4.67893 23.3211 3 21.25 3H14.75V13.25H25Z" fill="#212121"/>
</svg>

<svg viewBox="0 0 28 28" fill="none" xmlns="http://www.w3.org/2000/svg" height="1em" width="1em">
  <path d="M3 6.75A3.75 3.75 0 0 1 6.75 3h6.5v10.25H3v-6.5Zm0 8v6.5A3.75 3.75 0 0 0 6.75 25h6.5V14.75H3ZM14.75 25h6.5A3.75 3.75 0 0 0 25 21.25v-6.5H14.75V25ZM25 13.25v-6.5A3.75 3.75 0 0 0 21.25 3h-6.5v10.25H25Z" fill="#212121"/>
</svg>
